X:1
T:Descansarei
T:Alto Sax.
T:Descansarei
T:Sax Alto - MiB 
Z:Alto Sax
L:1/8
M:2/2
K:A
V:1 treble nm="Part_1"
V:1
 c4 e4 | A6 z A | f4 B4 | B8 | c4 e4 | A6 z A | d2 dB- B2 BB- | B4 cdeA | f2 ff- f2 ee- | e4 cdeA | %10
 f2 fe- e2 dc- | c4 cdeA | f2 ff- f2 ee- | e4 cdeA- | A2 cB- B2 AA- | A8 | z6 e2 | c4 e4 | A6 z A | %19
 f4 B4 | B8 | c4 e4 | A6 z c | d2 dB- B2 BB- | B4 ceag || f2 ff- f2 ee- | e4 ceag | f2 fg- g2 aa- | %28
 a4 ceag | f2 ff- f2 ee- | e4 cdeA- | A2 cB- B2 AA- | A4 cdeA- | A2 cB- B2 AA- | A8 |] %35

